img/logo.svg

<svg width="95" height="95" viewBox="0 0 95 95" fill="none" xmlns="http://www.w3.org/2000/svg">
<path fill-rule="evenodd" clip-rule="evenodd" d="M47.5 95C73.7335 95 95 73.7335 95 47.5C95 21.2665 73.7335 0 47.5 0C21.2665 0 0 21.2665 0 47.5C0 73.7335 21.2665 95 47.5 95Z" fill="url(#paint0_linear)" fill-opacity="0.1"/>
<path fill-rule="evenodd" clip-rule="evenodd" d="M47.5 88.0388C69.8889 88.0388 88.0388 69.889 88.0388 47.5C88.0388 25.111 69.8889 6.96121 47.5 6.96121C25.111 6.96121 6.96118 25.111 6.96118 47.5C6.96118 69.889 25.111 88.0388 47.5 88.0388Z" fill="url(#paint1_linear)" fill-opacity="0.3"/>
<path fill-rule="evenodd" clip-rule="evenodd" d="M47.4488 80.5657C65.7388 80.5657 80.5657 65.7388 80.5657 47.4488C80.5657 29.1589 65.7388 14.3319 47.4488 14.3319C29.1589 14.3319 14.3319 29.1589 14.3319 47.4488C14.3319 65.7388 29.1589 80.5657 47.4488 80.5657Z" fill="#F9F9F9" fill-opacity="0.67"/>
<path fill-rule="evenodd" clip-rule="evenodd" d="M47.5 78.2112C64.4614 78.2112 78.2112 64.4613 78.2112 47.5C78.2112 30.5387 64.4614 16.7888 47.5 16.7888C30.5387 16.7888 16.7888 30.5387 16.7888 47.5C16.7888 64.4613 30.5387 78.2112 47.5 78.2112Z" fill="url(#paint2_linear)"/>
<path fill-rule="evenodd" clip-rule="evenodd" d="M47.5 78.2112C64.4614 78.2112 78.2112 64.4613 78.2112 47.5C78.2112 30.5387 64.4614 16.7888 47.5 16.7888C30.5387 16.7888 16.7888 30.5387 16.7888 47.5C16.7888 64.4613 30.5387 78.2112 47.5 78.2112Z" fill="url(#paint3_linear)"/>
<mask id="mask0" mask-type="alpha" maskUnits="userSpaceOnUse" x="16" y="16" width="63" height="63">
<path fill-rule="evenodd" clip-rule="evenodd" d="M47.5 78.2112C64.4614 78.2112 78.2112 64.4613 78.2112 47.5C78.2112 30.5387 64.4614 16.7888 47.5 16.7888C30.5387 16.7888 16.7888 30.5387 16.7888 47.5C16.7888 64.4613 30.5387 78.2112 47.5 78.2112Z" fill="white"/>
</mask>
<g mask="url(#mask0)">
<path fill-rule="evenodd" clip-rule="evenodd" d="M43.6729 53.0945C41.1574 48.6696 38.6299 49.8038 38.6299 49.8038C45.984 59.5857 44.8549 66.5624 44.9138 68.7054H42.3312C44.9138 61.5013 37.5279 50.9685 37.5279 50.9685C35.4202 53.8169 38.9279 57.9433 38.9279 57.9433C33.1713 56.3583 34.7278 52.0252 34.7278 52.0252C32.4457 54.7211 33.2239 57.3635 33.2239 57.3635C30.2148 53.8232 33.5868 50.2292 33.5868 50.2292C31.1495 51.1272 30.6891 53.0945 30.6891 53.0945C30.4696 47.4345 35.4202 48.051 35.4202 48.051C37.8422 41.7167 43.6965 45.9765 43.6965 45.9765C39.8128 45.4721 39.2167 47.3224 39.2167 47.3224C44.2781 47.0973 43.6729 53.0945 43.6729 53.0945Z" fill="white"/>
<path fill-rule="evenodd" clip-rule="evenodd" d="M59.4731 47.7263C59.4731 47.7263 63.3549 54.2959 56.8325 56.176C56.8325 56.176 59.8315 53.6939 56.4389 47.5C56.4389 47.5 51.1305 52.7569 49.8469 68.7054H47.5C48.9289 56.176 53.2725 47.1361 55.7508 46.1495C55.7508 46.1495 51.4466 44.733 48.3667 48.6937C48.3667 48.6937 47.8932 43.1519 54.8361 43.8235C54.8361 43.8235 53.9244 42.5372 47.5 43.1762C47.5 43.1762 52.3779 37.6902 59.2024 43.8235C59.2024 43.8235 66.2094 42.4252 66.5117 50.3013C66.5117 50.3013 64.7556 47.1281 61.1758 46.1495C61.1758 46.1495 67.2682 51.2607 63.3549 56.4993C63.3549 56.4993 63.0265 51.2134 59.4731 47.7263Z" fill="white"/>
<path fill-rule="evenodd" clip-rule="evenodd" d="M73.0927 76.7488C73.0927 83.2115 61.1435 88.4483 46.4022 88.4483C31.661 88.4483 19.7137 83.2115 19.7137 76.7488C19.7137 70.2861 31.661 65.0493 46.4022 65.0493C61.1435 65.0493 73.0927 70.2861 73.0927 76.7488Z" fill="url(#paint4_linear)"/>
<path fill-rule="evenodd" clip-rule="evenodd" d="M59.1995 26.2952C59.1995 29.1211 56.9075 31.4132 54.0816 31.4132C51.2546 31.4132 48.9625 29.1211 48.9625 26.2952C48.9625 23.4682 51.2546 21.1761 54.0816 21.1761C56.9075 21.1761 59.1995 23.4682 59.1995 26.2952Z" fill="#FACC5F"/>
</g>
<defs>
<linearGradient id="paint0_linear" x1="0" y1="0" x2="0" y2="95" gradientUnits="userSpaceOnUse">
<stop stop-color="white"/>
<stop offset="1" stop-color="#DFDFDF"/>
</linearGradient>
<linearGradient id="paint1_linear" x1="6.96118" y1="6.96121" x2="6.96118" y2="88.0388" gradientUnits="userSpaceOnUse">
<stop stop-color="white"/>
<stop offset="1" stop-color="#DFDFDF"/>
</linearGradient>
<linearGradient id="paint2_linear" x1="78.2112" y1="78.2112" x2="78.2112" y2="16.7888" gradientUnits="userSpaceOnUse">
<stop stop-color="#80C3F3"/>
<stop offset="1" stop-color="#4A90E2"/>
</linearGradient>
<linearGradient id="paint3_linear" x1="44.5638" y1="-59.9036" x2="-43.7195" y2="48.5188" gradientUnits="userSpaceOnUse">
<stop stop-color="#2151AC"/>
<stop offset="1" stop-color="#0F274E"/>
</linearGradient>
<linearGradient id="paint4_linear" x1="19.7137" y1="65.0493" x2="19.7137" y2="88.4483" gradientUnits="userSpaceOnUse">
<stop stop-color="white"/>
<stop offset="1" stop-color="#DFDFDF"/>
</linearGradient>
</defs>
</svg>

<svg xmlns="http://www.w3.org/2000/svg" width="95" height="95" fill="none" viewBox="0 0 95 95"><path fill="url(#paint0_linear)" fill-opacity=".1" fill-rule="evenodd" d="M47.5 95C73.734 95 95 73.734 95 47.5 95 21.267 73.734 0 47.5 0 21.267 0 0 21.267 0 47.5 0 73.734 21.267 95 47.5 95z" clip-rule="evenodd"/><path fill="url(#paint1_linear)" fill-opacity=".3" fill-rule="evenodd" d="M47.5 88.039c22.389 0 40.539-18.15 40.539-40.539 0-22.389-18.15-40.539-40.539-40.539-22.389 0-40.539 18.15-40.539 40.539 0 22.389 18.15 40.539 40.539 40.539z" clip-rule="evenodd"/><path fill="#F9F9F9" fill-opacity=".67" fill-rule="evenodd" d="M47.449 80.566c18.29 0 33.117-14.827 33.117-33.117S65.739 14.332 47.449 14.332 14.332 29.159 14.332 47.449s14.827 33.117 33.117 33.117z" clip-rule="evenodd"/><path fill="url(#paint2_linear)" fill-rule="evenodd" d="M47.5 78.211c16.961 0 30.711-13.75 30.711-30.711S64.461 16.789 47.5 16.789 16.789 30.539 16.789 47.5 30.539 78.211 47.5 78.211z" clip-rule="evenodd"/><path fill="url(#paint3_linear)" fill-rule="evenodd" d="M47.5 78.211c16.961 0 30.711-13.75 30.711-30.711S64.461 16.789 47.5 16.789 16.789 30.539 16.789 47.5 30.539 78.211 47.5 78.211z" clip-rule="evenodd"/><mask id="a" width="63" height="63" x="16" y="16" maskUnits="userSpaceOnUse"><path fill="#fff" fill-rule="evenodd" d="M47.5 78.211c16.961 0 30.711-13.75 30.711-30.711S64.461 16.789 47.5 16.789 16.789 30.539 16.789 47.5 30.539 78.211 47.5 78.211z" clip-rule="evenodd"/></mask><g fill-rule="evenodd" clip-rule="evenodd" mask="url(#a)"><path fill="#fff" d="M43.673 53.094c-2.516-4.424-5.043-3.29-5.043-3.29 7.354 9.782 6.225 16.758 6.284 18.901H42.33c2.583-7.204-4.803-17.736-4.803-17.736-2.108 2.848 1.4 6.974 1.4 6.974-5.757-1.585-4.2-5.918-4.2-5.918-2.282 2.696-1.504 5.339-1.504 5.339-3.01-3.54.363-7.135.363-7.135-2.438.898-2.898 2.865-2.898 2.865-.22-5.66 4.731-5.043 4.731-5.043 2.422-6.334 8.276-2.075 8.276-2.075-3.883-.504-4.48 1.346-4.48 1.346 5.062-.225 4.457 5.772 4.457 5.772zM59.473 47.726s3.882 6.57-2.64 8.45c0 0 2.998-2.482-.394-8.676 0 0-5.309 5.257-6.592 21.205H47.5c1.429-12.529 5.773-21.569 8.25-22.555 0 0-4.303-1.417-7.383 2.544 0 0-.474-5.542 6.47-4.87 0 0-.913-1.287-7.337-.648 0 0 4.878-5.486 11.702.648 0 0 7.007-1.399 7.31 6.477 0 0-1.756-3.173-5.336-4.151 0 0 6.092 5.11 2.179 10.35 0 0-.328-5.287-3.882-8.774z"/><path fill="url(#paint4_linear)" d="M73.093 76.749c0 6.463-11.95 11.7-26.69 11.7-14.742 0-26.69-5.237-26.69-11.7 0-6.463 11.948-11.7 26.69-11.7 14.74 0 26.69 5.237 26.69 11.7z"/><path fill="#FACC5F" d="M59.2 26.295a5.119 5.119 0 1 1-10.238-.001 5.119 5.119 0 0 1 10.237.001z"/></g><defs><linearGradient id="paint0_linear" x1="0" x2="0" y1="0" y2="95" gradientUnits="userSpaceOnUse"><stop stop-color="#fff"/><stop offset="1" stop-color="#DFDFDF"/></linearGradient><linearGradient id="paint1_linear" x1="6.961" x2="6.961" y1="6.961" y2="88.039" gradientUnits="userSpaceOnUse"><stop stop-color="#fff"/><stop offset="1" stop-color="#DFDFDF"/></linearGradient><linearGradient id="paint2_linear" x1="78.211" x2="78.211" y1="78.211" y2="16.789" gradientUnits="userSpaceOnUse"><stop stop-color="#80C3F3"/><stop offset="1" stop-color="#4A90E2"/></linearGradient><linearGradient id="paint3_linear" x1="44.564" x2="-43.719" y1="-59.904" y2="48.519" gradientUnits="userSpaceOnUse"><stop stop-color="#2151AC"/><stop offset="1" stop-color="#0F274E"/></linearGradient><linearGradient id="paint4_linear" x1="19.714" x2="19.714" y1="65.049" y2="88.448" gradientUnits="userSpaceOnUse"><stop stop-color="#fff"/><stop offset="1" stop-color="#DFDFDF"/></linearGradient></defs></svg>
